X:1
T:Red River Valley
C:Traditional Folk Song
M:4/4
L:1/8
Q:1/2=80
K:G
|DG|"G"B2 "B7"BA "Em"G2 "G7"AG|"C"EG-G4 "G"DG
|B2 "Dm"BB "E7"d2 cB|"A7"A4-"D7"A2 DG
|"G"B2 "B7"BA "Em"G2 "G7"AB
|"C"dc-c4 E"Eb7"_E|"G"D2 "Em"GG "A7"B2 "D7"AA|"G"!FERMATA!G8||

